app/images/icons/facebook.svg

<svg xmlns="http://www.w3.org/2000/svg" width="9" height="16"><path fill-rule="evenodd" fill="#A1A1A1" d="M6.19.125c.413 0 .828.022 1.24.04.268.011.537.05.789.077L8.2 2.727h-.198c-.272 0-.545-.003-.818-.003a17.9 17.9 0 00-.613.008c-.659.022-1.144.269-1.177 1.092-.021.592-.036 1.901-.037 1.969l1.34.002c.327 0 .647 0 .871-.002h.531c-.133.955-.255 1.87-.388 2.792H5.357l-.053 6.971h-2.89l.053-6.982H.103l.021-2.776h2.375l.002-.208c.004-.559-.003-1.119.018-1.678.008-.351.027-.713.091-1.065.16-.849.554-1.563 1.266-2.073C4.499.33 5.208.143 5.96.127c.076-.002.153-.002.23-.002z"/></svg>

<svg 
 xmlns="http://www.w3.org/2000/svg"
 xmlns:xlink="http://www.w3.org/1999/xlink"
 width="9px" height="16px">
<path fill-rule="evenodd"  fill="rgb(161, 161, 161)"
 d="M6.190,0.125 C6.603,0.125 7.018,0.147 7.430,0.165 C7.698,0.176 7.967,0.215 8.219,0.242 L8.200,2.727 L8.002,2.727 C7.730,2.727 7.457,2.724 7.184,2.724 C6.980,2.724 6.775,2.725 6.571,2.732 C5.912,2.754 5.427,3.001 5.394,3.824 C5.373,4.416 5.358,5.725 5.357,5.793 C5.391,5.793 6.042,5.795 6.697,5.795 C7.024,5.795 7.344,5.795 7.568,5.793 L8.099,5.793 C7.966,6.748 7.844,7.663 7.711,8.585 L5.357,8.585 L5.304,15.556 L2.414,15.556 L2.467,8.574 L0.103,8.574 L0.124,5.798 L2.499,5.798 L2.501,5.590 C2.505,5.031 2.498,4.471 2.519,3.912 C2.527,3.561 2.546,3.199 2.610,2.847 C2.770,1.998 3.164,1.284 3.876,0.774 C4.499,0.330 5.208,0.143 5.960,0.127 C6.036,0.125 6.113,0.125 6.190,0.125 Z"/>
</svg>
